X:1
T:Title
%%score { ( 1 4 6 ) | ( 2 3 5 ) }
L:1/8
M:6/8
K:Db
V:1 treble nm="Grand Piano"
V:4 treble 
V:6 treble 
V:2 bass 
V:3 bass 
V:5 bass 
V:1
 z3 z2[Q:1/4=84] [FA]/[FA]/ | [FA][DF][FA] [Fd]2 [Fd]/[Fd]/ | edB [FA]2 [FA] | %3
 [GB][FA][FA] [GB][FA]F |[M:7/8] FED [CA]3 A |[M:3/4] AB c[Fd] [FA]>[FA] | %6
 [GB][FA] [DF] [FA]2 [Af] | [Ae][Ad] A[Ac] BG/G/ | F[CG] [CE] D3 |[M:1/8] F | %10
[M:3/4] F<D F[FA]/F/- F z | BG B [FA]2 [GA] | [Fd][Ac] .[B,GB][DGB] [DFA][A,DF] | %13
[M:27/32] z/4 z/4 z/4 z/4 z/4 z/4 z/4 z/4 z/4 z/4 z/ E/ z/4 z/4 z/4 z/4 z/4 z/4 z/4 z/4 z/4 z/4 z/4 z/ | %14
[M:3/4] (7:8:7F3/4F-F/8F3/4F3/4D3/8-D3/2 | %15
 (9:8:11B-B/8B-B/8 B-B/8[FA]3/8-[FA]3/2-[FA]3/8[FA]3/8[FA]3/4 | %16
[M:13/16] (7:8:13B3/4-B/16c3/4-c/16d3/4-d/16f-f3/16-f/32d-d3/16-d/32A3/8- z/32 (7:8:2A3/8-A/32 | %17
[M:5/8] z c3/2-c/4 z/4 z2 |] %18
V:2
 z3 z2 [D,D]/[D,D]/ | [D,D][D,A,][D,D] [D,A,]2 [D,A,]/[D,A,]/ | [G,B,G][G,B,G][G,DG] [D,D]2 [D,D] | %3
 [D,D][D,D][D,D] [D,D][D,D][D,A,D] |[M:7/8] [E,=G,D][E,G,B,][E,G,B,] [A,,E,]3[K:treble] [A,C] | %5
[M:3/4] [A,C][A,D=G] [A,E_G][K:bass][D,D] [D,D]>[D,D] | [D,D][D,D] [D,A,] [D,D]2 [D,D] | %7
 [E,C][F,D] [F,D][F,D] [G,DG][G,B,E]/[G,B,E]/ | [A,D][A,,E,] [A,,G,] [D,F,]3 |[M:1/8] [D,A,D] | %10
[M:3/4] [D,A,D]<[D,F,] [D,A,D][D,D]/[D,A,D]/- [D,A,D] z | [G,D][G,B,D] [G,DG] [D,D]2 [A,C] | %12
 [D,D]G,/A,/ z/ C/D, D,D, | %13
[M:27/32] z/4 z/4 z/4 z/4 z/4 z/4 z/4 z/4 z/4 z/4 z/4 z/4 z/ A/4-A/4-A/4-A/4-A/4-A/4-A/-<A/ z/4 z/ | %14
[M:3/4] (7:8:7[D,A,D]3/4[D,A,D]-[D,A,D]/8[D,A,D]3/4[D,A,D]3/4[D,F,]3/8-[D,F,]3/2 | %15
 (9:8:11[G,D]-[G,D]/8[G,B,D]-[G,B,D]/8 [G,CE]-[G,CE]/8[D,D]3/8-[D,D]3/2-[D,D]3/8[D,D]3/8[D,D]3/4 | %16
[M:13/16][K:treble] (7:8:14[G,DG]3/4-[G,DG]/16[G,CG]3/4-[G,CG]/16[=G,B,_F]3/4-[G,B,F]/16[A,D=F]-[A,DF]3/16-[A,DF]/32[A,DF]-[A,DF]3/16-[A,DF]/32[K:bass][F,D]3/8-[F,D]/32 z/30 (7:8:2[F,D]3/8-[F,D]/32 | %17
[M:5/8] z E3/2-E/4 z/4 z2 |] %18
V:3
 x6 | x6 | x6 | x6 |[M:7/8] x6[K:treble] x |[M:3/4] x3[K:bass] x3 | x6 | x6 | x6 |[M:1/8] x | %10
[M:3/4] x6 | x6 | z D, .D,2 z2 | %13
[M:27/32] E,/-<E,/E,/-<E,/E,/-<E,/ z/4 z/4 z/4 z/4 z/4 z/4 z/4 z/4 z/ A,,/4-A,,/-<A,,/ | %14
[M:3/4] x6 | x6 |[M:13/16][K:treble] x357/64[K:bass] x29/30 | %17
[M:5/8] [E,D]-[E,D]/4 z/4 z/ z/ [A,C]/- [A,C]/4 z/4 z/ z |] %18
V:4
 x6 | x6 | x6 | x6 |[M:7/8] x7 |[M:3/4] x6 | x6 | x6 | x6 |[M:1/8] x |[M:3/4] x6 | x6 | x6 | %13
[M:27/32] [=G,DF]/-<[G,DF]/[G,B,E]/-<[G,B,E]/[G,B,D]/-<[G,B,D]/[A,C]/4-[A,C]/4-[A,C]/4-[A,C]/4-[A,C]/4-[A,C]/4-[A,C]/-<[A,C]/[A,CG]/4-[A,CG]/-<[A,CG]/ | %14
[M:3/4] x6 | x6 |[M:13/16] x157/24 |[M:5/8] z _G2 [Fd]2 |] %18
V:5
 x6 | x6 | x6 | x6 |[M:7/8] x6[K:treble] x |[M:3/4] x3[K:bass] x3 | x6 | x6 | x6 |[M:1/8] x | %10
[M:3/4] x6 | x6 | x6 | %13
[M:27/32] z/4 z/4 z/4 z/4 z/4 z/4 z/4 z/4 z/4 z/4 z/ A,,/4-A,,/4-A,,/4-A,,/4-A,,/4-A,,/4-A,,/-<A,,/ z/4 z/4 z/4 z/ | %14
[M:3/4] x6 | x6 |[M:13/16][K:treble] x357/64[K:bass] x29/30 |[M:5/8] z A,2 [D,D]2 |] %18
V:6
 x6 | x6 | x6 | x6 |[M:7/8] x7 |[M:3/4] x6 | x6 | x6 | x6 |[M:1/8] x |[M:3/4] x6 | x6 | x6 | %13
[M:27/32] x27/4 |[M:3/4] x6 | x6 |[M:13/16] x157/24 | %17
[M:5/8] [=GB]-[GB]/4 z/4 z/ z/ [_GA]/- [GA]/4 z/4 z/ z |] %18

